Gurmukhi/0A17.svg

<svg enable-background="new 0 0 336 592" viewBox="0 0 336 592" xmlns="http://www.w3.org/2000/svg"><path d="m133.003876 262.927063c8.997696.000092 17.505325-.2341 25.991394.092133 4.725067.18161 5.997513-1.59311 5.895874-6.0766-.25293-11.158996-.341278-22.336975.045715-33.488555.182434-5.25673-1.760727-6.427109-6.626556-6.396973-30.327256.187866-60.657196-.016724-90.983589.232483-5.046025.041458-7.745411-1.501526-8.986103-6.317063-.743245-2.884811-2.085274-5.612854-3.118508-8.425918-2.00729-5.465119-.744015-7.264572 5.207337-7.439194 1.33208-.039078 2.666061-.017227 3.999164-.017013 69.488678.011581 138.977341.018783 208.466019.045379 5.658142.002167 11.317383.233719 16.973724.164353 2.339264-.028672 3.754852.740936 4.568543 2.952987 1.436493 3.905136 3.101776 7.727082 4.502136 11.644318 1.911743 5.34761.681213 7.161468-4.923462 7.217102-8.331146.082687-16.672211.259033-24.992279-.052856-4.707428-.176468-5.85788 1.590805-5.845856 6.074554.141876 52.824371.10083 105.649231.105499 158.473968.000184 1.999512.066834 4.004731-.057586 5.997315-.232514 3.724274-2.357086 5.288757-5.710999 3.740845-6.196914-2.859955-12.212127-6.114991-18.290069-9.230713-2.806015-1.438416-2.401779-4.107086-2.401886-6.58313-.001435-31.66153.00946-63.323029.010376-94.984558.000549-19.163544-.139145-38.328537.076339-57.489578.051743-4.601105-1.388443-6.099137-5.972259-5.993622-11.658783.268417-23.330307.254791-34.990814.03746-4.338303-.080856-5.711197 1.30423-5.691834 5.724503.160584 36.659988.081742 73.320999.094238 109.981704.004014 11.741211-1.314361 23.25586-5.936447 34.175263-6.696808 15.820801-20.590606 23.486389-37.672287 21.646911-23.431587-2.523285-40.120536-15.901764-54.295753-33.2052-9.72242-11.86795-16.997307-25.207214-19.226875-40.618378-4.119042-28.471557 9.168434-48.152648 40.327796-51.166534 6.309212-.610229 12.625557-.857971 19.459008-.715393m30.82991 82.583374c.231979-1.142059.658722-2.282776.666794-3.426422.125748-17.820313.180984-35.641113.295929-53.461548.021683-3.360016-2.161896-3.688232-4.682175-3.664123-11.990555.114624-24.000503-.149445-35.966919.451171-17.444099.875611-26.770019 11.372528-25.913254 28.7547.796265 16.154816 8.82296 29.07959 19.328835 40.626679 6.361374 6.991821 13.858299 12.477142 23.41523 14.458801 7.036728 1.459106 14.366867-1.610993 18.084182-7.746735 2.8051-4.630035 4.153351-9.759796 4.771378-15.992523z"/></svg>

<svg version="1.1" id="Layer_1" xmlns="http://www.w3.org/2000/svg" xmlns:xlink="http://www.w3.org/1999/xlink" x="0px" y="0px"
	 width="100%" viewBox="0 0 336 592" enable-background="new 0 0 336 592" xml:space="preserve">
<path fill="#000000" opacity="1.000000" stroke="none" 
	d="
M133.003876,262.927063 
	C142.001572,262.927155 150.509201,262.692963 158.995270,263.019196 
	C163.720337,263.200806 164.992783,261.426086 164.891144,256.942596 
	C164.638214,245.783600 164.549866,234.605621 164.936859,223.454041 
	C165.119293,218.197311 163.176132,217.026932 158.310303,217.057068 
	C127.983047,217.244934 97.653107,217.040344 67.326714,217.289551 
	C62.280689,217.331009 59.581303,215.788025 58.340611,210.972488 
	C57.597366,208.087677 56.255337,205.359634 55.222103,202.546570 
	C53.214813,197.081451 54.478088,195.281998 60.429440,195.107376 
	C61.761520,195.068298 63.095501,195.090149 64.428604,195.090363 
	C133.917282,195.101944 203.405945,195.109146 272.894623,195.135742 
	C278.552765,195.137909 284.212006,195.369461 289.868347,195.300095 
	C292.207611,195.271423 293.623199,196.041031 294.436890,198.253082 
	C295.873383,202.158218 297.538666,205.980164 298.939026,209.897400 
	C300.850769,215.245010 299.620239,217.058868 294.015564,217.114502 
	C285.684418,217.197189 277.343353,217.373535 269.023285,217.061646 
	C264.315857,216.885178 263.165405,218.652451 263.177429,223.136200 
	C263.319305,275.960571 263.278259,328.785431 263.282928,381.610168 
	C263.283112,383.609680 263.349762,385.614899 263.225342,387.607483 
	C262.992828,391.331757 260.868256,392.896240 257.514343,391.348328 
	C251.317429,388.488373 245.302216,385.233337 239.224274,382.117615 
	C236.418259,380.679199 236.822495,378.010529 236.822388,375.534485 
	C236.820953,343.872955 236.831848,312.211456 236.832764,280.549927 
	C236.833313,261.386383 236.693619,242.221390 236.909103,223.060349 
	C236.960846,218.459244 235.520660,216.961212 230.936844,217.066727 
	C219.278061,217.335144 207.606537,217.321518 195.946030,217.104187 
	C191.607727,217.023331 190.234833,218.408417 190.254196,222.828690 
	C190.414780,259.488678 190.335938,296.149689 190.348434,332.810394 
	C190.352448,344.551605 189.034073,356.066254 184.411987,366.985657 
	C177.715179,382.806458 163.821381,390.472046 146.739700,388.632568 
	C123.308113,386.109283 106.619164,372.730804 92.443947,355.427368 
	C82.721527,343.559418 75.446640,330.220154 73.217072,314.808990 
	C69.098030,286.337433 82.385506,266.656342 113.544868,263.642456 
	C119.854080,263.032227 126.170425,262.784485 133.003876,262.927063 
M163.833786,345.510437 
	C164.065765,344.368378 164.492508,343.227661 164.500580,342.084015 
	C164.626328,324.263702 164.681564,306.442902 164.796509,288.622467 
	C164.818192,285.262451 162.634613,284.934235 160.114334,284.958344 
	C148.123779,285.072968 136.113831,284.808899 124.147415,285.409515 
	C106.703316,286.285126 97.377396,296.782043 98.234161,314.164215 
	C99.030426,330.319031 107.057121,343.243805 117.562996,354.790894 
	C123.924370,361.782715 131.421295,367.268036 140.978226,369.249695 
	C148.014954,370.708801 155.345093,367.638702 159.062408,361.502960 
	C161.867508,356.872925 163.215759,351.743164 163.833786,345.510437 
z"/>
</svg>
